icons/fill-new-office-folder-check.svg

<svg xmlns="http://www.w3.org/2000/svg" width="32px" height="32px" viewBox="0 0 32 32" version="1.1">
    <title>fill-new-office-folder-check</title>
    <g id="fill-new-office-folder-check" stroke-width="1" fill-rule="evenodd">
        <path d="M12.0857864,4 C12.3510029,4 12.6053568,4.10535684 12.7928932,4.29289322 L16.2071068,7.70710678 C16.3946432,7.89464316 16.6489971,8 16.9142136,8 L29,8 C29.5522847,8 30,8.44771525 30,9 L30,27 C30,27.5522847 29.5522847,28 29,28 L3,28 C2.44771525,28 2,27.5522847 2,27 L2,5 C2,4.44771525 2.44771525,4 3,4 L12.0857864,4 Z M21.2071068,14.7928932 C20.8165825,14.4023689 20.1834175,14.4023689 19.7928932,14.7928932 L15,19.585 L12.7071068,17.2928932 C12.3165825,16.9023689 11.6834175,16.9023689 11.2928932,17.2928932 C10.9023689,17.6834175 10.9023689,18.3165825 11.2928932,18.7071068 L14.2928932,21.7071068 C14.6834175,22.0976311 15.3165825,22.0976311 15.7071068,21.7071068 L21.2071068,16.2071068 C21.5976311,15.8165825 21.5976311,15.1834175 21.2071068,14.7928932 Z" id="&#24418;&#29366;" />
    </g>
</svg>

<svg xmlns="http://www.w3.org/2000/svg" viewBox="0 0 32 32"><path fill="currentColor" d="M12.086 4a1 1 0 0 1 .707.293l3.414 3.414a1 1 0 0 0 .707.293H29a1 1 0 0 1 1 1v18a1 1 0 0 1-1 1H3a1 1 0 0 1-1-1V5a1 1 0 0 1 1-1zm9.121 10.793a1 1 0 0 0-1.414 0L15 19.585l-2.293-2.292a1 1 0 0 0-1.414 1.414l3 3a1 1 0 0 0 1.414 0l5.5-5.5a1 1 0 0 0 0-1.414"/></svg>
